X:1
T:General Stewart, West Park, Elgin
T:General Stewart, West Park, Elgin
T:William Marshall
C:William Marshall
%%score { ( 1 2 ) ( 3 4 ) }
L:1/8
M:4/4
K:C
V:1 treble 
V:2 treble 
V:3 bass 
V:4 bass 
V:1
 (GA/B/) | c2 G2 E2 C2 | [Ec]2 [Ec]>[Ec] [Ec]2 cd/e/ | f3 e{e} d3 c | [GB]2 [Gd]>d d3 e | %5
{g} (f/e/f/g/) af{c} c'3 a | ag{g}f>e a3 f | (e/f/)(g/a/) (g/f/)e/d/ [Ec]2 T[FB]2 | %8
 [Ec]2 [Ec]>[Ec] [Ec]3 |] G | [Gd]2 [Gd]>[Gd] d3 e | dcBA GdBG | g2 g>g g3 a | gfed cgec | %14
 f2 A2{A} a3 f | ([Gf]e){e}([Gd]>c) [Gg]3 [Af] | ([ce]/f/)g/a/ ([Ag]/f/)[Ge]/[Fd]/ [Ec]2 c/B/A/B/ | %17
 [EGc]2 [EGc]>[EGc] [EGc]2 |] %18
V:2
 x2 | x8 | x8 | G4 G4 | x8 | c4 c4 | c4 c4 | c2 A2 x4 | x7 |] x | x4 G4 | G2 G2 G2 G2 | c2 c2 c4 | %13
 x8 | x8 | x8 | x6 FF | x6 |] %18
V:3
 ga/b/ | c'2 g2 e2 c2 | c>CE>G c2 z2 | GgGg GgGg | gGBd gbd'[g_bc'] | %5
 f[ac'][ac'][ac'] f[ac'][ac'][ac'] | c[ec'][ec'][ec'] F[ad'][ad'][ad'] | [gc']2 [Ff]2 [Gg]2 [Gg]2 | %8
 c>CE>G c3 |] z | [d'f']g[d'f']g [d'f']g[d'f']g | [d'f']g[d'f']g [d'f']g[d'f']g | c'ceg cc'cc' | %13
 c[ec'][ec'][ec'] c[gbc'][gbc'][gbc'] | f[ac'][ac'][ac'] f[ac'][ac'][ac'] | %15
 c[ec'][ec'][ec'] ec'Ff | CcFf GgGg | c>CE>G c2 |] %18
V:4
 x2 | x8 | x8 | x8 | x8 | F,4 F,4 | C,4 F,4 | x8 | x7 |] x | x8 | x8 | x8 | C,4 C,4 | F,4 F,4 | %15
 C,4 x4 | x8 | x6 |] %18

